packages/ffe-icons/icons/filled/md/flashlight_on.svg

<svg xmlns="http://www.w3.org/2000/svg" height="24" viewBox="0 -960 960 960" width="24"><path d="M260.001-749.999v-37.692q0-29.827 21.241-51.067 21.24-21.241 51.067-21.241h295.382q29.827 0 51.067 21.241 21.241 21.24 21.241 51.067v37.692H260.001Zm219.954 399.998q20.814 0 35.429-14.57 14.615-14.57 14.615-35.384t-14.57-35.429q-14.57-14.615-35.384-14.615t-35.429 14.57q-14.615 14.57-14.615 35.384t14.57 35.429q14.57 14.615 35.384 14.615ZM340.001-172.309v-353.845l-68.153-101.924q-6.231-9.23-9.039-19.11-2.808-9.88-2.808-20.658v-22.155h439.998v22.155q0 10.778-2.808 20.658t-9.039 19.11l-68.153 101.924v353.845q0 29.827-21.241 51.067-21.24 21.241-51.067 21.241H412.309q-29.827 0-51.067-21.241-21.241-21.24-21.241-51.067Z"/></svg>

<svg xmlns="http://www.w3.org/2000/svg" height="24" viewBox="0 -960 960 960" width="24"><path d="M260-750v-37.69q0-29.83 21.24-51.07Q302.48-860 332.31-860h295.38q29.83 0 51.07 21.24Q700-817.52 700-787.69V-750H260Zm219.95 400q20.82 0 35.43-14.57Q530-379.14 530-399.95q0-20.82-14.57-35.43Q500.86-450 480.05-450q-20.82 0-35.43 14.57Q430-420.86 430-400.05q0 20.82 14.57 35.43Q459.14-350 479.95-350ZM340-172.31v-353.84l-68.15-101.93q-6.23-9.23-9.04-19.11-2.81-9.88-2.81-20.66V-690h440v22.15q0 10.78-2.81 20.66t-9.04 19.11L620-526.15v353.84q0 29.83-21.24 51.07Q577.52-100 547.69-100H412.31q-29.83 0-51.07-21.24Q340-142.48 340-172.31Z"/></svg>
